icons/terminal.svg

<svg version="1.1" xmlns="http://www.w3.org/2000/svg" xmlns:xlink="http://www.w3.org/1999/xlink" x="0px" y="0px" width="512px" height="512px"><path d="M475.4285583,36.5714302H36.5714302C16.3714294,36.5714302,0,52.942852,0,73.1428604v365.7142944c0,20.1999817,16.3714275,36.5714111,36.5714302,36.5714111h438.8571167C495.6285706,475.4285583,512,459.0571289,512,438.8571472V73.1428604C512,52.942852,495.6285706,36.5714302,475.4285583,36.5714302z M73.1428604,292.5714417l73.1428604-73.142868l-73.1428604-73.1428528l36.5714264-36.571434l109.7142868,109.7142868L109.7142868,329.1428528L73.1428604,292.5714417z M365.7142944,329.1428528H219.4285736v-36.5714111h146.2857208V329.1428528z"/></svg>

<svg width="512" height="512" viewBox="0 0 512 512" fill="none" xmlns="http://www.w3.org/2000/svg">
<path d="M475.429 36.5713H36.5714C16.3714 36.5713 0 52.9427 0 73.1427V438.857C0 459.057 16.3714 475.428 36.5714 475.428H475.429C495.629 475.428 512 459.057 512 438.857V73.1427C512 52.9427 495.629 36.5713 475.429 36.5713ZM73.1429 292.571L146.286 219.428L73.1429 146.286L109.714 109.714L219.429 219.428L109.714 329.143L73.1429 292.571ZM365.714 329.143H219.429V292.571H365.714V329.143V329.143Z" fill="#34495E"/>
</svg>
